src/assets/logo/logo-no-background.svg

<svg xmlns="http://www.w3.org/2000/svg" version="1.1" xmlns:xlink="http://www.w3.org/1999/xlink" xmlns:svgjs="http://svgjs.dev/svgjs" width="1000" height="196" viewBox="0 0 1000 196"><g transform="matrix(1,0,0,1,-0.6060606060606801,-0.06756610992304957)"><svg viewBox="0 0 396 78" data-background-color="#ffffff" preserveAspectRatio="xMidYMid meet" height="196" width="1000" xmlns="http://www.w3.org/2000/svg" xmlns:xlink="http://www.w3.org/1999/xlink"><g id="tight-bounds" transform="matrix(1,0,0,1,0.24000000000003752,0.02697939910211744)"><svg viewBox="0 0 395.5199999999999 77.94613204694895" height="77.94613204694895" width="395.5199999999999"><g><svg viewBox="0 0 576.8024396695763 113.67192336035372" height="77.94613204694895" width="395.5199999999999"><g><rect width="6.308339297268682" height="76.16018865143698" x="158.46012315432682" y="18.755867354458367" fill="#ffa96a" opacity="1" stroke-width="0" stroke="transparent" fill-opacity="1" class="rect-in-0" data-fill-palette-color="primary" rx="1%" id="in-0" data-palette-color="#ffa96a"></rect></g><g transform="matrix(1,0,0,1,181.28243966957635,18.945320560058953)"><svg viewBox="0 0 395.52 75.78128224023581" height="75.78128224023581" width="395.52"><g><svg viewBox="0 0 395.52 75.78128224023581" height="75.78128224023581" width="395.52"><g><svg viewBox="0 0 395.52 75.78128224023581" height="75.78128224023581" width="395.52"><g transform="matrix(1,0,0,1,0,0)"><svg width="395.52" viewBox="4.4 -35.5 203.55000000000004 36.00000000000001" height="75.78128224023581" data-palette-color="#ffa96a"><svg></svg><g class="undefined-text-0" data-fill-palette-color="primary" id="text-0"><path d="M6.45 0v0c-0.6 0-1.09-0.2-1.47-0.6-0.387-0.4-0.58-0.883-0.58-1.45v0-30.95c0-0.567 0.193-1.043 0.58-1.43 0.38-0.38 0.853-0.57 1.42-0.57v0h17.55c0.567 0 1.05 0.183 1.45 0.55 0.4 0.367 0.6 0.833 0.6 1.4v0c0 0.533-0.2 0.983-0.6 1.35-0.4 0.367-0.883 0.55-1.45 0.55v0h-15.75l0.3-0.4v12.25l-0.25-0.55h13.45c0.567 0 1.05 0.19 1.45 0.57 0.4 0.387 0.6 0.863 0.6 1.43v0c0 0.5-0.2 0.94-0.6 1.32-0.4 0.387-0.883 0.58-1.45 0.58v0h-13.55l0.35-0.45v14.35c0 0.567-0.2 1.05-0.6 1.45-0.4 0.4-0.883 0.6-1.45 0.6zM63.75-17.5v0c0 2.567-0.417 4.94-1.25 7.12-0.833 2.187-2 4.097-3.5 5.73-1.5 1.633-3.283 2.9-5.35 3.8-2.067 0.9-4.317 1.35-6.75 1.35v0c-2.467 0-4.723-0.45-6.77-1.35-2.053-0.9-3.83-2.167-5.33-3.8-1.5-1.633-2.667-3.543-3.5-5.73-0.833-2.18-1.25-4.553-1.25-7.12v0c0-2.6 0.417-4.993 1.25-7.18 0.833-2.18 2-4.08 3.5-5.7 1.5-1.613 3.277-2.87 5.33-3.77 2.047-0.9 4.303-1.35 6.77-1.35v0c2.433 0 4.683 0.45 6.75 1.35 2.067 0.9 3.85 2.157 5.35 3.77 1.5 1.62 2.667 3.52 3.5 5.7 0.833 2.187 1.25 4.58 1.25 7.18zM59.45-17.5v0c0-2.733-0.54-5.15-1.62-7.25-1.087-2.1-2.563-3.75-4.43-4.95-1.867-1.2-4.033-1.8-6.5-1.8v0c-2.467 0-4.64 0.6-6.52 1.8-1.887 1.2-3.363 2.85-4.43 4.95-1.067 2.1-1.6 4.517-1.6 7.25v0c0 2.7 0.533 5.107 1.6 7.22 1.067 2.12 2.543 3.78 4.43 4.98 1.88 1.2 4.053 1.8 6.52 1.8v0c2.467 0 4.633-0.6 6.5-1.8 1.867-1.2 3.343-2.86 4.43-4.98 1.08-2.113 1.62-4.52 1.62-7.22zM101.95-17.5v0c0 2.567-0.417 4.94-1.25 7.12-0.833 2.187-2 4.097-3.5 5.73-1.5 1.633-3.283 2.9-5.35 3.8-2.067 0.9-4.317 1.35-6.75 1.35v0c-2.467 0-4.723-0.45-6.77-1.35-2.053-0.9-3.83-2.167-5.33-3.8-1.5-1.633-2.667-3.543-3.5-5.73-0.833-2.18-1.25-4.553-1.25-7.12v0c0-2.6 0.417-4.993 1.25-7.18 0.833-2.18 2-4.08 3.5-5.7 1.5-1.613 3.277-2.87 5.33-3.77 2.047-0.9 4.303-1.35 6.77-1.35v0c2.433 0 4.683 0.45 6.75 1.35 2.067 0.9 3.85 2.157 5.35 3.77 1.5 1.62 2.667 3.52 3.5 5.7 0.833 2.187 1.25 4.58 1.25 7.18zM97.65-17.5v0c0-2.733-0.54-5.15-1.62-7.25-1.087-2.1-2.563-3.75-4.43-4.95-1.867-1.2-4.033-1.8-6.5-1.8v0c-2.467 0-4.64 0.6-6.52 1.8-1.887 1.2-3.363 2.85-4.43 4.95-1.067 2.1-1.6 4.517-1.6 7.25v0c0 2.7 0.533 5.107 1.6 7.22 1.067 2.12 2.543 3.78 4.43 4.98 1.88 1.2 4.053 1.8 6.52 1.8v0c2.467 0 4.633-0.6 6.5-1.8 1.867-1.2 3.343-2.86 4.43-4.98 1.08-2.113 1.62-4.52 1.62-7.22zM110.6-35h12.5c2.433 0 4.577 0.457 6.43 1.37 1.847 0.92 3.387 2.197 4.62 3.83 1.233 1.633 2.16 3.507 2.78 5.62 0.613 2.12 0.92 4.347 0.92 6.68v0c0 3.2-0.55 6.127-1.65 8.78-1.1 2.647-2.733 4.76-4.9 6.34-2.167 1.587-4.9 2.38-8.2 2.38v0h-12.5c-0.567 0-1.043-0.2-1.43-0.6-0.38-0.4-0.57-0.883-0.57-1.45v0-30.95c0-0.567 0.19-1.043 0.57-1.43 0.387-0.38 0.863-0.57 1.43-0.57zM112.45-3.9h10.15c2.567 0 4.66-0.617 6.28-1.85 1.613-1.233 2.797-2.883 3.55-4.95 0.747-2.067 1.12-4.333 1.12-6.8v0c0-1.8-0.207-3.527-0.62-5.18-0.42-1.647-1.073-3.103-1.96-4.37-0.88-1.267-2.01-2.267-3.39-3-1.387-0.733-3.047-1.1-4.98-1.1v0h-10.25l0.4-0.4v28.15zM148.65-32.95v30.9c0 0.567-0.207 1.05-0.62 1.45-0.42 0.4-0.913 0.6-1.48 0.6v0c-0.633 0-1.133-0.2-1.5-0.6-0.367-0.4-0.55-0.883-0.55-1.45v0-30.9c0-0.6 0.2-1.093 0.6-1.48 0.4-0.38 0.9-0.57 1.5-0.57v0c0.567 0 1.05 0.19 1.45 0.57 0.4 0.387 0.6 0.88 0.6 1.48zM159.45-35v0h17.8c0.567 0 1.05 0.183 1.45 0.55 0.4 0.367 0.6 0.833 0.6 1.4v0c0 0.567-0.2 1.023-0.6 1.37-0.4 0.353-0.883 0.53-1.45 0.53v0h-16.1l0.45-0.85v12.65l-0.5-0.55h13.9c0.567 0 1.05 0.183 1.45 0.55 0.4 0.367 0.6 0.833 0.6 1.4v0c0 0.567-0.2 1.027-0.6 1.38-0.4 0.347-0.883 0.52-1.45 0.52v0h-13.75l0.35-0.45v12.95l-0.3-0.35h15.95c0.567 0 1.05 0.2 1.45 0.6 0.4 0.4 0.6 0.85 0.6 1.35v0c0 0.567-0.2 1.033-0.6 1.4-0.4 0.367-0.883 0.55-1.45 0.55v0h-17.8c-0.567 0-1.043-0.2-1.43-0.6-0.38-0.4-0.57-0.883-0.57-1.45v0-30.95c0-0.567 0.19-1.043 0.57-1.43 0.387-0.38 0.863-0.57 1.43-0.57zM196.15 0.5v0c-2.467 0-4.633-0.367-6.5-1.1-1.867-0.733-3.667-1.9-5.4-3.5v0c-0.233-0.233-0.427-0.493-0.58-0.78-0.147-0.28-0.22-0.587-0.22-0.92v0c0-0.533 0.19-1.01 0.57-1.43 0.387-0.413 0.863-0.62 1.43-0.62v0c0.467 0 0.883 0.183 1.25 0.55v0c1.3 1.267 2.707 2.233 4.22 2.9 1.52 0.667 3.23 1 5.13 1v0c1.467 0 2.79-0.233 3.97-0.7 1.187-0.467 2.13-1.117 2.83-1.95 0.7-0.833 1.05-1.8 1.05-2.9v0c-0.033-1.333-0.427-2.433-1.18-3.3-0.747-0.867-1.78-1.593-3.1-2.18-1.313-0.58-2.837-1.07-4.57-1.47v0c-1.533-0.367-2.943-0.817-4.23-1.35-1.28-0.533-2.387-1.193-3.32-1.98-0.933-0.78-1.66-1.73-2.18-2.85-0.513-1.113-0.77-2.42-0.77-3.92v0c0-1.9 0.5-3.567 1.5-5 1-1.433 2.383-2.543 4.15-3.33 1.767-0.78 3.8-1.17 6.1-1.17v0c2.033 0 3.957 0.333 5.77 1 1.82 0.667 3.28 1.583 4.38 2.75v0c0.667 0.633 1 1.25 1 1.85v0c0 0.5-0.21 0.957-0.63 1.37-0.413 0.42-0.887 0.63-1.42 0.63v0c-0.367 0-0.7-0.133-1-0.4v0c-0.567-0.633-1.283-1.2-2.15-1.7-0.867-0.5-1.817-0.9-2.85-1.2-1.033-0.3-2.067-0.45-3.1-0.45v0c-1.533 0-2.883 0.223-4.05 0.67-1.167 0.453-2.077 1.087-2.73 1.9-0.647 0.82-0.97 1.797-0.97 2.93v0c0 1.267 0.367 2.307 1.1 3.12 0.733 0.82 1.717 1.487 2.95 2 1.233 0.52 2.6 0.98 4.1 1.38v0c1.633 0.4 3.14 0.857 4.52 1.37 1.387 0.52 2.58 1.163 3.58 1.93 1 0.767 1.777 1.74 2.33 2.92 0.547 1.187 0.82 2.647 0.82 4.38v0c0 1.833-0.517 3.467-1.55 4.9-1.033 1.433-2.443 2.557-4.23 3.37-1.78 0.82-3.787 1.247-6.02 1.28z" fill="#ffa96a" fill-rule="nonzero" stroke="none" stroke-width="1" stroke-linecap="butt" stroke-linejoin="miter" stroke-miterlimit="10" stroke-dasharray="" stroke-dashoffset="0" font-family="none" font-weight="none" font-size="none" text-anchor="none" style="mix-blend-mode: normal" data-fill-palette-color="primary" opacity="1"></path></g></svg></g></svg></g></svg></g></svg></g><g><svg viewBox="0 0 141.94614593634597 113.67192336035372" height="113.67192336035372" width="141.94614593634597"><g><svg xmlns="http://www.w3.org/2000/svg" viewBox="5 13.927084 89.99999604266544 72.07291599999999" x="0" y="0" height="113.67192336035372" width="141.94614593634597" class="icon-icon-0" data-fill-palette-color="accent" id="icon-0"><path d="M68.397 26.512C61.788 18.808 51.983 13.927 41.036 13.927 21.134 13.927 5 30.061 5 49.964 5 69.866 21.134 86 41.036 86 51.983 86 61.788 81.118 68.397 73.415L45.541 49.964 68.397 26.512zM50.046 22.416c2.776 0 5.025 2.25 5.024 5.025 0 2.775-2.25 5.025-5.024 5.025-2.775 0-5.025-2.25-5.025-5.025 0-2.775 2.25-5.025 5.025-5.025z" fill="#e65728" data-fill-palette-color="accent"></path><path d="M72.226 68.21l0.022-11.778c25.347 0.732 28.238-22.284 14.978-36.698 5.361 9.778 6.235 24.652-14.932 24.096L72.317 31.808 54.071 49.964 72.226 68.21z" fill="#e65728" data-fill-palette-color="accent"></path></svg></g></svg></g></svg></g><defs></defs></svg><rect width="395.5199999999999" height="77.94613204694895" fill="none" stroke="none" visibility="hidden"></rect></g></svg></g></svg>

<svg xmlns="http://www.w3.org/2000/svg" version="1.1" xmlns:xlink="http://www.w3.org/1999/xlink" xmlns:svgjs="http://svgjs.dev/svgjs" width="1000" height="234" viewBox="0 0 1000 234"><g transform="matrix(1,0,0,1,-0.6060606060606233,0.1185232538964982)"><svg viewBox="0 0 396 93" data-background-color="#ffffff" preserveAspectRatio="xMidYMid meet" height="234" width="1000" xmlns="http://www.w3.org/2000/svg" xmlns:xlink="http://www.w3.org/1999/xlink"><g id="tight-bounds" transform="matrix(1,0,0,1,0.2400000000000091,-0.04699689587363309)"><svg viewBox="0 0 395.52 93.094102291653" height="93.094102291653" width="395.52"><g><svg viewBox="0 0 583.548597246298 137.35065939572584" height="93.094102291653" width="395.52"><g transform="matrix(1,0,0,1,188.02859724629795,33.699353279292545)"><svg viewBox="0 0 395.52 69.95195283714075" height="69.95195283714075" width="395.52"><g id="textblocktransform"><svg viewBox="0 0 395.52 69.95195283714075" height="69.95195283714075" width="395.52" id="textblock"><g><svg viewBox="0 0 395.52 69.95195283714075" height="69.95195283714075" width="395.52"><g transform="matrix(1,0,0,1,0,0)"><svg width="395.52" viewBox="4.4 -35.5 203.54 36" height="69.95195283714075" data-palette-color="#ffa96a"><path d="M6.45 0L6.45 0Q5.55 0 4.98-0.6 4.4-1.2 4.4-2.05L4.4-2.05 4.4-33Q4.4-33.85 4.98-34.43 5.55-35 6.4-35L6.4-35 23.95-35Q24.8-35 25.4-34.45 26-33.9 26-33.05L26-33.05Q26-32.25 25.4-31.7 24.8-31.15 23.95-31.15L23.95-31.15 8.2-31.15 8.5-31.55 8.5-19.3 8.25-19.85 21.7-19.85Q22.55-19.85 23.15-19.28 23.75-18.7 23.75-17.85L23.75-17.85Q23.75-17.1 23.15-16.53 22.55-15.95 21.7-15.95L21.7-15.95 8.15-15.95 8.5-16.4 8.5-2.05Q8.5-1.2 7.9-0.6 7.3 0 6.45 0ZM63.75-17.5L63.75-17.5Q63.75-13.65 62.5-10.38 61.25-7.1 59-4.65 56.75-2.2 53.65-0.85 50.55 0.5 46.9 0.5L46.9 0.5Q43.2 0.5 40.12-0.85 37.05-2.2 34.8-4.65 32.55-7.1 31.3-10.38 30.05-13.65 30.05-17.5L30.05-17.5Q30.05-21.4 31.3-24.68 32.55-27.95 34.8-30.38 37.05-32.8 40.12-34.15 43.2-35.5 46.9-35.5L46.9-35.5Q50.55-35.5 53.65-34.15 56.75-32.8 59-30.38 61.25-27.95 62.5-24.68 63.75-21.4 63.75-17.5ZM59.45-17.5L59.45-17.5Q59.45-21.6 57.82-24.75 56.2-27.9 53.4-29.7 50.6-31.5 46.9-31.5L46.9-31.5Q43.2-31.5 40.37-29.7 37.55-27.9 35.95-24.75 34.35-21.6 34.35-17.5L34.35-17.5Q34.35-13.45 35.95-10.28 37.55-7.1 40.37-5.3 43.2-3.5 46.9-3.5L46.9-3.5Q50.6-3.5 53.4-5.3 56.2-7.1 57.82-10.28 59.45-13.45 59.45-17.5ZM101.95-17.5L101.95-17.5Q101.95-13.65 100.7-10.38 99.45-7.1 97.2-4.65 94.95-2.2 91.84-0.85 88.75 0.5 85.09 0.5L85.09 0.5Q81.4 0.5 78.32-0.85 75.25-2.2 73-4.65 70.75-7.1 69.5-10.38 68.25-13.65 68.25-17.5L68.25-17.5Q68.25-21.4 69.5-24.68 70.75-27.95 73-30.38 75.25-32.8 78.32-34.15 81.4-35.5 85.09-35.5L85.09-35.5Q88.75-35.5 91.84-34.15 94.95-32.8 97.2-30.38 99.45-27.95 100.7-24.68 101.95-21.4 101.95-17.5ZM97.65-17.5L97.65-17.5Q97.65-21.6 96.02-24.75 94.4-27.9 91.59-29.7 88.8-31.5 85.09-31.5L85.09-31.5Q81.4-31.5 78.57-29.7 75.75-27.9 74.15-24.75 72.55-21.6 72.55-17.5L72.55-17.5Q72.55-13.45 74.15-10.28 75.75-7.1 78.57-5.3 81.4-3.5 85.09-3.5L85.09-3.5Q88.8-3.5 91.59-5.3 94.4-7.1 96.02-10.28 97.65-13.45 97.65-17.5ZM110.59-35L123.09-35Q126.74-35 129.52-33.63 132.29-32.25 134.14-29.8 135.99-27.35 136.92-24.18 137.84-21 137.84-17.5L137.84-17.5Q137.84-12.7 136.19-8.72 134.54-4.75 131.29-2.38 128.04 0 123.09 0L123.09 0 110.59 0Q109.74 0 109.17-0.6 108.59-1.2 108.59-2.05L108.59-2.05 108.59-33Q108.59-33.85 109.17-34.43 109.74-35 110.59-35L110.59-35ZM112.44-3.9L122.59-3.9Q126.44-3.9 128.87-5.75 131.29-7.6 132.42-10.7 133.54-13.8 133.54-17.5L133.54-17.5Q133.54-20.2 132.92-22.68 132.29-25.15 130.97-27.05 129.64-28.95 127.57-30.05 125.49-31.15 122.59-31.15L122.59-31.15 112.34-31.15 112.74-31.55 112.74-3.4 112.44-3.9ZM148.64-32.95L148.64-2.05Q148.64-1.2 148.02-0.6 147.39 0 146.54 0L146.54 0Q145.59 0 145.04-0.6 144.49-1.2 144.49-2.05L144.49-2.05 144.49-32.95Q144.49-33.85 145.09-34.43 145.69-35 146.59-35L146.59-35Q147.44-35 148.04-34.43 148.64-33.85 148.64-32.95L148.64-32.95ZM159.44-35L159.44-35 177.24-35Q178.09-35 178.69-34.45 179.29-33.9 179.29-33.05L179.29-33.05Q179.29-32.2 178.69-31.68 178.09-31.15 177.24-31.15L177.24-31.15 161.14-31.15 161.59-32 161.59-19.35 161.09-19.9 174.99-19.9Q175.84-19.9 176.44-19.35 177.04-18.8 177.04-17.95L177.04-17.95Q177.04-17.1 176.44-16.57 175.84-16.05 174.99-16.05L174.99-16.05 161.24-16.05 161.59-16.5 161.59-3.55 161.29-3.9 177.24-3.9Q178.09-3.9 178.69-3.3 179.29-2.7 179.29-1.95L179.29-1.95Q179.29-1.1 178.69-0.55 178.09 0 177.24 0L177.24 0 159.44 0Q158.59 0 158.01-0.6 157.44-1.2 157.44-2.05L157.44-2.05 157.44-33Q157.44-33.85 158.01-34.43 158.59-35 159.44-35ZM196.13 0.5L196.13 0.5Q192.44 0.5 189.63-0.6 186.84-1.7 184.23-4.1L184.23-4.1Q183.88-4.45 183.66-4.88 183.44-5.3 183.44-5.8L183.44-5.8Q183.44-6.6 184.01-7.23 184.59-7.85 185.44-7.85L185.44-7.85Q186.13-7.85 186.69-7.3L186.69-7.3Q188.63-5.4 190.91-4.4 193.19-3.4 196.03-3.4L196.03-3.4Q198.23-3.4 200.01-4.1 201.78-4.8 202.84-6.05 203.88-7.3 203.88-8.95L203.88-8.95Q203.84-10.95 202.71-12.25 201.59-13.55 199.61-14.43 197.63-15.3 195.03-15.9L195.03-15.9Q192.73-16.45 190.81-17.25 188.88-18.05 187.48-19.23 186.09-20.4 185.31-22.08 184.53-23.75 184.53-26L184.53-26Q184.53-28.85 186.03-31 187.53-33.15 190.19-34.33 192.84-35.5 196.28-35.5L196.28-35.5Q199.34-35.5 202.06-34.5 204.78-33.5 206.44-31.75L206.44-31.75Q207.44-30.8 207.44-29.9L207.44-29.9Q207.44-29.15 206.81-28.53 206.19-27.9 205.38-27.9L205.38-27.9Q204.84-27.9 204.38-28.3L204.38-28.3Q203.53-29.25 202.24-30 200.94-30.75 199.38-31.2 197.84-31.65 196.28-31.65L196.28-31.65Q193.98-31.65 192.23-30.98 190.48-30.3 189.51-29.08 188.53-27.85 188.53-26.15L188.53-26.15Q188.53-24.25 189.63-23.03 190.73-21.8 192.59-21.03 194.44-20.25 196.69-19.65L196.69-19.65Q199.13-19.05 201.21-18.28 203.28-17.5 204.78-16.35 206.28-15.2 207.11-13.43 207.94-11.65 207.94-9.05L207.94-9.05Q207.94-6.3 206.38-4.15 204.84-2 202.16-0.78 199.48 0.45 196.13 0.5Z" opacity="1" transform="matrix(1,0,0,1,0,0)" fill="#ffa96a" class="undefined-text-0" data-fill-palette-color="primary" id="text-0"></path></svg></g></svg></g></svg></g></svg></g><g><svg viewBox="0 0 171.5146200283171 137.35065939572584" height="137.35065939572584" width="171.5146200283171"><g><svg xmlns="http://www.w3.org/2000/svg" viewBox="5 13.927084 89.99999604266544 72.07291599999999" x="0" y="0" height="137.35065939572584" width="171.5146200283171" class="icon-icon-0" data-fill-palette-color="accent" id="icon-0"><path d="M68.397 26.512C61.788 18.808 51.983 13.927 41.036 13.927 21.134 13.927 5 30.061 5 49.964 5 69.866 21.134 86 41.036 86 51.983 86 61.788 81.118 68.397 73.415L45.541 49.964 68.397 26.512zM50.046 22.416c2.776 0 5.025 2.25 5.024 5.025 0 2.775-2.25 5.025-5.024 5.025-2.775 0-5.025-2.25-5.025-5.025 0-2.775 2.25-5.025 5.025-5.025z" fill="#e65728" data-fill-palette-color="accent"></path><path d="M72.226 68.21l0.022-11.778c25.347 0.732 28.238-22.284 14.978-36.698 5.361 9.778 6.235 24.652-14.932 24.096L72.317 31.808 54.071 49.964 72.226 68.21z" fill="#e65728" data-fill-palette-color="accent"></path></svg></g></svg></g></svg></g><defs></defs></svg><rect width="395.52" height="93.094102291653" fill="none" stroke="none" visibility="hidden"></rect></g></svg></g></svg>
